icones/Send.svg

<svg width="21" height="21" viewBox="0 0 21 21" fill="none" xmlns="http://www.w3.org/2000/svg">
<path d="M18.1174 2.84786C17.711 2.43074 17.1095 2.27534 16.5486 2.43891L3.47017 6.24211C2.87843 6.40651 2.45901 6.87843 2.34602 7.47795C2.2306 8.0881 2.63376 8.86264 3.16048 9.18652L7.24984 11.6999C7.66926 11.9575 8.21061 11.8929 8.55769 11.5429L13.2404 6.831C13.4761 6.58563 13.8663 6.58563 14.102 6.831C14.3377 7.06818 14.3377 7.45259 14.102 7.69796L9.41116 12.4107C9.06327 12.7599 8.99824 13.3038 9.25429 13.7258L11.7529 17.8562C12.0456 18.3469 12.5495 18.625 13.1022 18.625C13.1673 18.625 13.2404 18.625 13.3054 18.6168C13.9395 18.535 14.4434 18.1015 14.6304 17.4881L18.5076 4.42639C18.6783 3.87023 18.5238 3.26499 18.1174 2.84786Z" fill="white"/>
</svg>

<svg width="21" height="21" fill="none" xmlns="http://www.w3.org/2000/svg"><path d="M18.117 2.848a1.57 1.57 0 0 0-1.568-.41L3.47 6.243a1.56 1.56 0 0 0-1.124 1.236c-.115.61.288 1.385.814 1.709L7.25 11.7c.42.258.96.193 1.308-.157L13.24 6.83a.596.596 0 0 1 .862 0 .62.62 0 0 1 0 .867l-4.69 4.713c-.349.349-.414.893-.158 1.315l2.499 4.13c.293.49.796.769 1.35.769.064 0 .137 0 .202-.008a1.584 1.584 0 0 0 1.325-1.129l3.878-13.062a1.596 1.596 0 0 0-.39-1.578Z" fill="#fff"/></svg>
